assets/presets/cyberpunk.xmp
<x:xmpmeta xmlns:x="adobe:ns:meta/" x:xmptk="Adobe XMP Core 5.6-c140 79.160451, 2017/05/06-13:02:18">
 <rdf:RDF xmlns:rdf="http://www.w3.org/1999/02/22-rdf-syntax-ns#">
  <rdf:Description rdf:about=""
    xmlns:crs="http://ns.adobe.com/camera-raw-settings/1.0/"
   crs:PresetType="Normal"
   crs:Name="CogniLens Cyberpunk Preset"
   crs:SupportsAmount="True"
   crs:SupportsColor="True"
   crs:Contrast2012="+25"
   crs:Highlights2012="-40"
   crs:Shadows2012="+30"
   crs:Whites2012="-15"
   crs:Blacks2012="+20"
   crs:Saturation="+15"
   crs:HasSettings="True">
   <crs:Name>
    <rdf:Alt>
     <rdf:li xml:lang="x-default">CogniLens Cyberpunk Preset</rdf:li>
    </rdf:Alt>
   </crs:Name>
  </rdf:Description>
 </rdf:RDF>
</x:xmpmeta>
